components/Header/logo-desktop.svg

<svg width="147" height="26" viewBox="0 0 147 26" fill="black"  xmlns="http://www.w3.org/2000/svg">
<g clip-path="url(#clip0)">
<path d="M9.37782 22.1407H12.573V3.78836H7.92548C3.25157 3.78836 0.795791 6.19133 0.795791 9.72977C0.795791 12.5552 2.14251 14.2188 4.54548 15.9352L0.373291 22.1407H3.83251L8.48001 15.1959L6.86923 14.1132C4.91516 12.7929 3.96454 11.763 3.96454 9.54492C3.96454 7.59086 5.33767 6.27055 7.95188 6.27055H9.37782V22.1407ZM70.9836 22.4048C72.4359 22.4048 73.4658 22.1407 74.2316 21.5862V19.0248C73.4394 19.5793 72.4887 19.9226 71.1684 19.9226C68.9239 19.9226 67.9997 18.1798 67.9997 15.4335C67.9997 12.5552 69.1351 11.0765 71.1948 11.0765C72.4095 11.0765 73.5978 11.499 74.2316 11.8951V9.22805C73.5714 8.85836 72.4095 8.5943 70.8516 8.5943C66.8378 8.5943 64.7517 11.4726 64.7517 15.5127C64.7517 19.949 66.785 22.4048 70.9836 22.4048ZM51.3373 21.2429V18.6815C50.3603 19.3416 48.7231 19.9226 47.1916 19.9226C44.8942 19.9226 44.0228 18.8399 43.8908 16.6218H51.4694V14.9582C51.4694 10.3371 49.4361 8.5943 46.2938 8.5943C42.4648 8.5943 40.6428 11.5254 40.6428 15.5391C40.6428 20.1602 42.9138 22.4048 46.9275 22.4048C48.9344 22.4048 50.4131 21.8766 51.3373 21.2429ZM22.5545 8.85836V14.1132H18.3559V8.85836H15.2136V22.1407H18.3559V16.5954H22.5545V22.1407H25.6969V8.85836H22.5545ZM39.877 19.6585H38.4775V8.85836H29.3145V9.99383C29.3145 13.2418 29.1033 17.4404 27.9942 19.6585H27.0172V25.1774H29.9219V22.1407H36.9723V25.1774H39.877V19.6585ZM61.3717 22.1407H64.9366L59.893 14.9846L64.3292 8.85836H61.1605L56.7242 14.9846V8.85836H53.5819V22.1407H56.7242V15.6184L61.3717 22.1407ZM46.2409 11.0765C47.7989 11.0765 48.2742 12.3704 48.2742 14.034V14.298H43.8908C43.97 12.1855 44.7358 11.0765 46.2409 11.0765ZM35.3352 19.6585H30.8989C31.7703 17.6516 32.008 14.034 32.008 11.7366V11.3405H35.3352V19.6585Z" />
<mask id="mask0" mask-type="alpha" maskUnits="userSpaceOnUse" x="79" y="0" width="28" height="27">
<path d="M106.453 13.2031C106.453 20.3828 100.451 26.2031 93.0469 26.2031C85.6428 26.2031 79.6406 20.3828 79.6406 13.2031C79.6406 6.02342 85.6428 0.203125 93.0469 0.203125C100.451 0.203125 106.453 6.02342 106.453 13.2031Z" fill="white"/>
</mask>
<g mask="url(#mask0)">
<path d="M100.93 19.5212C98.9356 21.2819 96.3335 22.3438 93.4944 22.3438C87.5388 22.3438 83.0762 17.7314 83.0762 12.4591C83.0762 7.5013 87.0294 3.45304 91.9305 3.45304C96.556 3.45304 99.8933 7.03925 99.8933 10.9221C99.8933 14.5618 97.0219 17.5141 93.4944 17.5141C90.2667 17.5141 87.9886 15.0693 87.9886 12.4591C87.9886 10.1164 89.8008 8.28274 91.9321 8.28274C93.8184 8.28274 94.9825 9.65756 94.9825 10.9221C94.9825 12.0197 94.2102 12.6828 93.4944 12.6828C93.2413 12.6828 93.1445 12.6293 93.043 12.5661C93.2735 12.2694 93.388 11.8835 93.3299 11.4815C93.2155 10.7049 92.4964 10.1683 91.7242 10.2834C91.0615 10.3823 90.6407 10.833 90.4328 11.1669C90.1974 11.5415 90.0716 11.9922 90.0716 12.4591C90.0716 14.3219 91.808 15.5265 93.4944 15.5265C95.9578 15.5281 97.8103 13.3767 97.8103 10.9221C97.8103 7.91796 95.2065 5.43907 91.9321 5.43907C88.1289 5.43907 85.1608 8.65887 85.1608 12.4591C85.1608 16.7651 88.8318 20.3562 93.496 20.3562C98.6519 20.3562 102.723 16.0631 102.723 10.9205C102.723 5.39206 98.0424 0.609375 91.9321 0.609375C85.4317 0.609375 80.25 5.96922 80.25 12.4591C80.25 19.3883 86.0669 25.1875 93.496 25.1875C97.0493 25.1875 100.309 23.8532 102.797 21.658L100.93 19.5212ZM92.8962 12.4283C92.8962 12.425 92.8946 12.4267 92.8962 12.4283V12.4283Z" fill="#FFCC00"/>
</g>
</g>
<path d="M109.805 3.78836V22.1407H120.235V19.6585H113V14.166H119.02V11.6838H113V6.27055H120.103V3.78836H109.805Z" />
<path d="M134.576 19.6585H133.177V8.85837H124.014V9.99384C124.014 13.2418 123.802 17.4404 122.693 19.6585H121.716V25.1774H124.621V22.1407H131.672V25.1774H134.576V19.6585ZM130.034 19.6585H125.598C126.469 17.6516 126.707 14.034 126.707 11.7366V11.3405H130.034V19.6585Z" />
<path d="M146.088 13.0834C146.088 9.86178 144.451 8.64709 141.124 8.64709C139.038 8.64709 137.4 9.30725 136.45 9.86178V12.476C137.295 11.8423 139.143 11.1557 140.754 11.1557C142.259 11.1557 142.946 11.6838 142.946 13.1098V13.8491H142.444C137.638 13.8491 135.499 15.4335 135.499 18.127C135.499 20.8204 137.136 22.3256 139.566 22.3256C141.414 22.3256 142.206 21.7182 142.814 21.0845H142.946C142.972 21.4277 143.078 21.8766 143.183 22.1407H146.247C146.141 21.0581 146.088 19.9754 146.088 18.8927V13.0834ZM142.946 18.972C142.55 19.5529 141.81 20.0282 140.701 20.0282C139.381 20.0282 138.721 19.236 138.721 18.0477C138.721 16.4898 139.803 15.9352 142.497 15.9352H142.946V18.972Z" />
<path d="M9.37782 22.1407H12.573V3.78833H7.92548C3.25157 3.78833 0.795791 6.1913 0.795791 9.72974C0.795791 12.5552 2.14251 14.2188 4.54548 15.9352L0.373291 22.1407H3.83251L8.48001 15.1959L6.86923 14.1132C4.91516 12.7929 3.96454 11.763 3.96454 9.54489C3.96454 7.59083 5.33767 6.27052 7.95188 6.27052H9.37782V22.1407ZM70.9836 22.4048C72.4359 22.4048 73.4658 22.1407 74.2316 21.5862V19.0248C73.4394 19.5793 72.4887 19.9226 71.1684 19.9226C68.9239 19.9226 67.9997 18.1798 67.9997 15.4335C67.9997 12.5552 69.1351 11.0765 71.1948 11.0765C72.4095 11.0765 73.5978 11.499 74.2316 11.8951V9.22802C73.5714 8.85833 72.4095 8.59427 70.8516 8.59427C66.8378 8.59427 64.7517 11.4726 64.7517 15.5127C64.7517 19.949 66.785 22.4048 70.9836 22.4048ZM51.3373 21.2429V18.6815C50.3603 19.3416 48.7231 19.9226 47.1916 19.9226C44.8942 19.9226 44.0228 18.8399 43.8908 16.6218H51.4694V14.9582C51.4694 10.3371 49.4361 8.59427 46.2938 8.59427C42.4648 8.59427 40.6428 11.5254 40.6428 15.5391C40.6428 20.1602 42.9138 22.4048 46.9275 22.4048C48.9344 22.4048 50.4131 21.8766 51.3373 21.2429ZM22.5545 8.85833V14.1132H18.3559V8.85833H15.2136V22.1407H18.3559V16.5954H22.5545V22.1407H25.6969V8.85833H22.5545ZM39.877 19.6585H38.4775V8.85833H29.3145V9.9938C29.3145 13.2418 29.1033 17.4404 27.9942 19.6585H27.0172V25.1774H29.9219V22.1407H36.9723V25.1774H39.877V19.6585ZM61.3717 22.1407H64.9366L59.893 14.9846L64.3292 8.85833H61.1605L56.7242 14.9846V8.85833H53.5819V22.1407H56.7242V15.6184L61.3717 22.1407ZM46.2409 11.0765C47.7989 11.0765 48.2742 12.3704 48.2742 14.034V14.298H43.8908C43.97 12.1855 44.7358 11.0765 46.2409 11.0765ZM35.3352 19.6585H30.8989C31.7703 17.6516 32.008 14.034 32.008 11.7366V11.3405H35.3352V19.6585Z" />
<mask id="mask1" mask-type="alpha" maskUnits="userSpaceOnUse" x="79" y="0" width="28" height="27">
<path d="M106.453 13.2031C106.453 20.3828 100.451 26.2031 93.0469 26.2031C85.6428 26.2031 79.6406 20.3828 79.6406 13.2031C79.6406 6.02342 85.6428 0.203125 93.0469 0.203125C100.451 0.203125 106.453 6.02342 106.453 13.2031Z" fill="white"/>
</mask>
<g mask="url(#mask1)">
<path d="M100.93 19.5212C98.9356 21.2819 96.3335 22.3438 93.4944 22.3438C87.5388 22.3438 83.0762 17.7314 83.0762 12.4591C83.0762 7.5013 87.0294 3.45304 91.9305 3.45304C96.556 3.45304 99.8933 7.03925 99.8933 10.9221C99.8933 14.5618 97.0219 17.5141 93.4944 17.5141C90.2667 17.5141 87.9886 15.0693 87.9886 12.4591C87.9886 10.1164 89.8008 8.28274 91.9321 8.28274C93.8184 8.28274 94.9825 9.65756 94.9825 10.9221C94.9825 12.0197 94.2102 12.6828 93.4944 12.6828C93.2413 12.6828 93.1445 12.6293 93.043 12.5661C93.2735 12.2694 93.388 11.8835 93.3299 11.4815C93.2155 10.7049 92.4964 10.1683 91.7242 10.2834C91.0615 10.3823 90.6407 10.833 90.4328 11.1669C90.1974 11.5415 90.0716 11.9922 90.0716 12.4591C90.0716 14.3219 91.808 15.5265 93.4944 15.5265C95.9578 15.5281 97.8103 13.3767 97.8103 10.9221C97.8103 7.91796 95.2065 5.43907 91.9321 5.43907C88.1289 5.43907 85.1608 8.65887 85.1608 12.4591C85.1608 16.7651 88.8318 20.3562 93.496 20.3562C98.6519 20.3562 102.723 16.0631 102.723 10.9205C102.723 5.39206 98.0424 0.609375 91.9321 0.609375C85.4317 0.609375 80.25 5.96922 80.25 12.4591C80.25 19.3883 86.0669 25.1875 93.496 25.1875C97.0493 25.1875 100.309 23.8532 102.797 21.658L100.93 19.5212ZM92.8962 12.4283C92.8962 12.425 92.8946 12.4267 92.8962 12.4283V12.4283Z"/>
</g>
<defs>
<clipPath id="clip0">
<rect width="147" height="26" fill="white"/>
</clipPath>
</defs>
</svg>

<svg width="147" height="26" viewBox="0 0 147 26" xmlns="http://www.w3.org/2000/svg">
    <path d="M109.805 3.788v18.353h10.43v-2.482H113v-5.493h6.02v-2.482H113V6.27h7.103V3.788h-10.298m24.771 15.87h-1.399v-10.8h-9.163v1.136c0 3.248-.212 7.446-1.321 9.665h-.977v5.518h2.905v-3.036h7.051v3.036h2.904V19.66zm-4.542 0h-4.436c.871-2.006 1.109-5.624 1.109-7.921v-.396h3.327v8.318m16.054-6.576c0-3.221-1.637-4.436-4.964-4.436-2.086 0-3.724.66-4.674 1.215v2.614c.845-.634 2.693-1.32 4.304-1.32 1.505 0 2.192.528 2.192 1.954v.74h-.502c-4.806 0-6.945 1.584-6.945 4.277s1.637 4.199 4.067 4.199c1.848 0 2.64-.608 3.248-1.242h.132c.026.344.132.793.237 1.057h3.064a33.312 33.312 0 01-.159-3.248v-5.81zm-3.142 5.889c-.396.58-1.136 1.056-2.245 1.056-1.32 0-1.98-.792-1.98-1.98 0-1.558 1.082-2.113 3.776-2.113h.449v3.037M9.378 22.141h3.195V3.788H7.925c-4.673 0-7.13 2.403-7.13 5.942 0 2.825 1.348 4.489 3.75 6.205L.373 22.141h3.46l4.647-6.945-1.61-1.083c-1.955-1.32-2.905-2.35-2.905-4.568 0-1.954 1.373-3.274 3.987-3.274h1.426v15.87zm61.606.264c1.452 0 2.482-.264 3.248-.819v-2.561c-.793.554-1.743.898-3.064.898-2.244 0-3.168-1.743-3.168-4.49 0-2.878 1.135-4.357 3.195-4.357 1.215 0 2.403.423 3.037.82V9.227c-.66-.37-1.823-.634-3.38-.634-4.014 0-6.1 2.879-6.1 6.919 0 4.436 2.033 6.892 6.232 6.892zm-19.647-1.162v-2.561c-.977.66-2.614 1.24-4.145 1.24-2.298 0-3.17-1.082-3.301-3.3h7.578v-1.664c0-4.62-2.033-6.364-5.175-6.364-3.83 0-5.651 2.931-5.651 6.945 0 4.621 2.27 6.866 6.285 6.866 2.006 0 3.485-.528 4.41-1.162zM22.554 8.858v5.255h-4.198V8.858h-3.142v13.283h3.142v-5.546h4.198v5.546h3.143V8.858h-3.142zm17.323 10.8h-1.4v-10.8h-9.162v1.136c0 3.248-.212 7.446-1.32 9.665h-.978v5.518h2.905v-3.036h7.05v3.036h2.905V19.66zm21.495 2.483h3.565l-5.044-7.156 4.436-6.127h-3.168l-4.437 6.127V8.858h-3.142v13.283h3.142v-6.523l4.648 6.523zM46.24 11.077c1.558 0 2.033 1.293 2.033 2.957v.264h-4.383c.079-2.113.845-3.222 2.35-3.222zm-10.906 8.582H30.9c.871-2.007 1.109-5.625 1.109-7.922v-.396h3.327v8.318m65.595-.138a11.198 11.198 0 01-7.436 2.823c-5.955 0-10.418-4.613-10.418-9.885 0-4.958 3.953-9.006 8.855-9.006 4.625 0 7.962 3.586 7.962 7.47 0 3.639-2.871 6.591-6.399 6.591-3.227 0-5.505-2.445-5.505-5.055 0-2.343 1.812-4.176 3.943-4.176 1.886 0 3.05 1.375 3.05 2.64 0 1.097-.772 1.76-1.488 1.76-.253 0-.35-.054-.451-.117.23-.297.345-.683.287-1.085a1.415 1.415 0 00-1.606-1.198c-.663.1-1.083.55-1.291.884a2.432 2.432 0 00-.361 1.292c0 1.863 1.736 3.068 3.422 3.068 2.464.001 4.316-2.15 4.316-4.605 0-3.004-2.603-5.483-5.878-5.483-3.803 0-6.771 3.22-6.771 7.02 0 4.306 3.67 7.897 8.335 7.897 5.156 0 9.227-4.293 9.227-9.436 0-5.528-4.68-10.31-10.79-10.31-6.501 0-11.683 5.36-11.683 11.85 0 6.928 5.817 12.727 13.246 12.727 3.553 0 6.813-1.334 9.301-3.529l-1.867-2.137zm-8.034-7.093c0-.003-.001-.001 0 0z"/>
</svg>
